public/virtua.svg

<svg width="46" height="69" viewBox="0 0 46 69" fill="none" xmlns="http://www.w3.org/2000/svg">
<path d="M9.95131 64.6441C9.45488 64.6493 8.96577 64.5242 8.53286 64.2812C7.44816 63.6713 6.85742 62.3839 6.85742 60.6594V26.1441C6.92924 24.3847 7.4126 22.6666 8.2687 21.1278C9.1248 19.589 10.3298 18.2724 11.787 17.2835L33.7437 4.08617C35.1405 3.24684 36.4863 3.11084 37.5309 3.70155C38.6106 4.31311 39.2055 5.59881 39.2055 7.32336V41.8353C39.134 43.5952 38.6507 45.3138 37.7945 46.8531C36.9382 48.3924 35.7328 49.7094 34.2752 50.6983L12.3193 63.894C11.612 64.3528 10.7938 64.612 9.95131 64.6441ZM36.1108 4.37652C35.4565 4.40761 34.8225 4.61393 34.2752 4.97389L12.3209 18.1713C11.0184 19.0703 9.94099 20.2579 9.17265 21.6415C8.40431 23.0251 7.9658 24.5674 7.89123 26.1483V60.6602C7.89123 61.9951 8.29922 62.9629 9.04182 63.3843C9.49125 63.5711 9.98226 63.6352 10.4646 63.57C10.9469 63.5047 11.4033 63.3125 11.787 63.013L33.7437 49.8156C35.0461 48.9166 36.1234 47.7292 36.8917 46.3457C37.66 44.9623 38.0987 43.4201 38.1734 41.8394V7.32419C38.1734 5.98927 37.7646 5.02145 37.0228 4.60179C36.7442 4.4476 36.4301 4.3688 36.1116 4.37318L36.1108 4.37652Z" fill="#0D034A"/>
<path opacity="0.43" d="M3.60659 61.3033C3.11016 61.3085 2.62104 61.1833 2.18813 60.9403C1.10343 60.3304 0.512695 59.0431 0.512695 57.3185V22.8066C0.584319 21.0466 1.06776 19.3279 1.92418 17.7887C2.78059 16.2494 3.98611 14.9324 5.44389 13.9435L27.3981 0.746159C28.7957 -0.0931739 30.1407 -0.229175 31.1854 0.362363C32.2642 0.972256 32.86 2.25962 32.86 3.98418V38.4978C32.7889 40.2578 32.306 41.9767 31.45 43.5163C30.594 45.0558 29.3889 46.3732 27.9313 47.3625L5.97623 60.559C5.26796 61.0163 4.44915 61.2735 3.60659 61.3033ZM29.7678 1.03566C29.1134 1.0666 28.4794 1.27293 27.9321 1.63304L5.97707 14.8313C4.67468 15.7303 3.59737 16.9177 2.82904 18.3012C2.06071 19.6846 1.62208 21.2267 1.54732 22.8074V57.3193C1.54732 58.6543 1.95617 59.6238 2.69793 60.0434C3.14772 60.2299 3.63892 60.2938 4.12146 60.2286C4.60399 60.1634 5.06061 59.9714 5.44473 59.6721L27.3981 46.4748C28.7009 45.5757 29.7784 44.3881 30.5468 43.0043C31.3151 41.6205 31.7536 40.078 31.8279 38.4969V3.98668C31.8279 2.65176 31.4198 1.68227 30.6772 1.2626C30.399 1.10913 30.0855 1.03091 29.7678 1.03566Z" fill="#0D034A"/>
<path d="M18.0054 21.744C16.6278 22.6907 15.4884 23.9438 14.6765 25.4048C13.8647 26.8659 13.4025 28.4952 13.3262 30.1649V64.6759C13.3262 67.7821 15.4121 69.0286 18.0054 67.4718L39.9621 54.2744C41.3397 53.3279 42.4792 52.075 43.291 50.6141C44.1029 49.1532 44.5651 47.524 44.6414 45.8544V11.345C44.6414 8.23876 42.5554 6.99228 39.9621 8.54913L18.0054 21.744Z" fill="white"/>
<path d="M15.8967 68.9994C15.3418 69.0045 14.7952 68.8641 14.3113 68.5923C13.1207 67.919 12.4648 66.5273 12.4648 64.6751V30.1649C12.5387 28.3471 13.0378 26.572 13.9222 24.9822C14.8066 23.3923 16.0516 22.0321 17.5571 21.0106L39.5138 7.81492C41.0157 6.91051 42.485 6.77201 43.6415 7.42696C44.8322 8.10026 45.488 9.49191 45.488 11.3441V45.8535C45.4145 47.671 44.9158 49.4458 44.0318 51.0355C43.1479 52.6252 41.9034 53.9855 40.3983 55.0069L18.4415 68.2035C17.6808 68.694 16.8013 68.969 15.8967 68.9994ZM18.4415 22.4774C17.1871 23.3445 16.1497 24.4893 15.4101 25.8228C14.6704 27.1563 14.2484 28.6425 14.177 30.1657V64.6751C14.177 65.8665 14.5333 66.7518 15.1558 67.103C15.5537 67.2576 15.9851 67.3053 16.4072 67.2412C16.8293 67.177 17.2272 67.0034 17.5613 66.7376L39.518 53.5402C40.7724 52.6732 41.8097 51.5285 42.5494 50.1952C43.289 48.8618 43.711 47.3758 43.7825 45.8527V11.3475C43.7825 10.156 43.4263 9.27082 42.8038 8.91873C42.406 8.76417 41.9746 8.71657 41.5527 8.78069C41.1308 8.84481 40.733 9.0184 40.3991 9.28417L18.4415 22.4774Z" fill="#27292B"/>
<path d="M38.4953 40.522L38.8832 25.8687C38.8924 25.52 38.7898 25.2605 38.6137 25.1896L31.2236 22.1993C31.0476 22.1276 30.8256 22.2552 30.6395 22.5331L22.8673 34.1928C22.6743 34.4964 22.566 34.8461 22.5536 35.2057L22.1656 49.8589C22.1564 50.2077 22.2591 50.4672 22.4351 50.5381L29.8252 53.5283C30.0013 53.6001 30.2232 53.4724 30.4093 53.1946L38.1874 41.5315C38.3777 41.2283 38.484 40.8799 38.4953 40.522ZM30.884 24.3361L37.1377 26.8666L30.5503 36.7358L24.3033 34.202L30.884 24.3361ZM23.68 36.2269L29.927 38.7607L29.5991 51.158L23.3521 48.6241L23.68 36.2269ZM30.7655 50.4939L31.0934 38.0966L37.675 28.2282L37.3471 40.6255L30.7655 50.4939Z" fill="#27292B"/>
</svg>

<svg xmlns="http://www.w3.org/2000/svg" width="46" height="69" fill="none" viewBox="0 0 46 69"><path fill="#0d034a" d="M9.951 64.644a2.84 2.84 0 0 1-1.418-.363c-1.085-.61-1.676-1.897-1.676-3.622V26.144a11.26 11.26 0 0 1 4.93-8.86L33.744 4.085c1.397-.84 2.742-.975 3.787-.384 1.08.611 1.675 1.897 1.675 3.621v34.512a11.26 11.26 0 0 1-4.93 8.863L12.318 63.894a4.7 4.7 0 0 1-2.368.75m26.16-60.267a3.66 3.66 0 0 0-1.836.597L12.321 18.17a10.28 10.28 0 0 0-4.43 7.977V60.66c0 1.335.408 2.303 1.15 2.724a2.75 2.75 0 0 0 2.746-.371l21.957-13.197a10.28 10.28 0 0 0 4.43-7.977V7.324c0-1.335-.41-2.303-1.151-2.722a1.83 1.83 0 0 0-.911-.229z"/><path fill="#0d034a" d="M3.607 61.303a2.84 2.84 0 0 1-1.419-.363C1.103 60.33.513 59.043.513 57.32V22.807a11.26 11.26 0 0 1 4.93-8.863L27.399.745c1.398-.84 2.743-.975 3.787-.384 1.08.61 1.675 1.898 1.675 3.622v34.514a11.26 11.26 0 0 1-4.929 8.865L5.976 60.558a4.67 4.67 0 0 1-2.37.744m26.16-60.267a3.65 3.65 0 0 0-1.835.597L5.977 14.831a10.28 10.28 0 0 0-4.43 7.976V57.32c0 1.335.41 2.305 1.15 2.724a2.75 2.75 0 0 0 2.748-.37l21.953-13.198a10.28 10.28 0 0 0 4.43-7.978V3.987c0-1.335-.408-2.305-1.15-2.724a1.8 1.8 0 0 0-.91-.227" opacity=".43"/><path fill="#fff" d="M18.005 21.744a10.82 10.82 0 0 0-4.679 8.42v34.512c0 3.106 2.086 4.353 4.68 2.796l21.956-13.198a10.81 10.81 0 0 0 4.68-8.42V11.345c0-3.106-2.087-4.353-4.68-2.796z"/><path fill="#27292b" d="M15.897 69a3.2 3.2 0 0 1-1.586-.408c-1.19-.673-1.846-2.065-1.846-3.917v-34.51a11.63 11.63 0 0 1 5.092-9.154L39.514 7.815c1.502-.904 2.971-1.043 4.127-.388 1.191.673 1.847 2.065 1.847 3.917v34.51a11.63 11.63 0 0 1-5.09 9.153L18.441 68.204c-.76.49-1.64.765-2.544.795m2.545-46.523a9.91 9.91 0 0 0-4.265 7.689v34.51c0 1.19.356 2.076.979 2.427a2.44 2.44 0 0 0 2.405-.365L39.518 53.54a9.91 9.91 0 0 0 4.264-7.687V11.347c0-1.191-.356-2.076-.978-2.428a2.44 2.44 0 0 0-2.405.365z"/><path fill="#27292b" d="m38.495 40.522.388-14.653c.01-.349-.093-.608-.27-.68l-7.39-2.99c-.175-.071-.397.056-.583.334l-7.773 11.66a2 2 0 0 0-.313 1.013l-.388 14.653c-.01.349.093.608.27.68l7.39 2.99c.175.071.397-.057.583-.334l7.778-11.663c.19-.304.297-.652.308-1.01m-7.611-16.186 6.254 2.53-6.588 9.87-6.247-2.534zm-7.204 11.89 6.247 2.535-.328 12.397-6.247-2.534zm7.086 14.268.327-12.397 6.582-9.869-.328 12.398z"/></svg>
